static/img/noun-cycle-7222105.svg

<svg width="99" height="99" viewBox="0 0 99 99" fill="none" xmlns="http://www.w3.org/2000/svg">
<path d="M13.195 43.8504C13.0635 44.6586 12.3017 45.2039 11.4973 45.0762C10.6891 44.9448 10.1439 44.1829 10.2715 43.3786C11.1377 38.0882 13.052 33.1378 15.79 28.7645C18.5937 24.2863 22.2598 20.4073 26.5521 17.3638C27.2173 16.892 28.1454 17.0467 28.6172 17.7119C29.089 18.3771 28.9343 19.3051 28.2691 19.7769C24.2859 22.6 20.8867 26.1926 18.2957 30.3303C15.7627 34.3754 13.9954 38.9499 13.191 43.8537L13.195 43.8504ZM38.803 6.31123C38.1185 5.8665 37.9213 4.9461 38.3699 4.2616C38.8146 3.5771 39.735 3.37984 40.4195 3.82847L50.3542 10.2905C51.0387 10.7353 51.236 11.6557 50.7873 12.3402L50.6713 12.4987L42.5231 22.039C41.9894 22.6616 41.0574 22.7312 40.4349 22.2014C39.8122 21.6678 39.7426 20.7358 40.2724 20.1132L46.2086 13.1639C44.306 13.3341 42.4419 13.6512 40.6321 14.1037C38.0759 14.7379 35.6279 15.6389 33.3231 16.772C32.5883 17.1317 31.7027 16.8262 31.3431 16.0953C30.9834 15.3605 31.2889 14.4749 32.0198 14.1153C34.5219 12.8855 37.1709 11.911 39.9205 11.2265C41.5602 10.8204 43.2386 10.511 44.9556 10.3138L38.803 6.31123ZM58.3984 92.6475C59.1061 93.0574 59.3459 93.9624 58.936 94.67C58.5261 95.3777 57.6211 95.6175 56.9134 95.2076L46.8633 89.403C46.1556 88.993 45.9158 88.0881 46.3257 87.3804L46.492 87.1484L54.7214 76.9893C55.2357 76.3551 56.1716 76.2584 56.8058 76.7766C57.44 77.291 57.5367 78.2268 57.0185 78.8611L50.688 86.6728C56.2528 86.5065 61.5004 85.1067 66.1724 82.7399C71.3544 80.1141 75.8364 76.301 79.2511 71.6568C79.7345 70.9956 80.6626 70.8563 81.32 71.3359C81.9813 71.8193 82.1206 72.7474 81.641 73.4048C77.9517 78.4205 73.1097 82.5466 67.5104 85.3821C63.0747 87.629 58.1673 89.0676 52.9772 89.5123L58.4029 92.6447L58.3984 92.6475ZM92.7704 41.0784C93.1803 40.3707 94.0853 40.1309 94.793 40.5408C95.5007 40.9507 95.7404 41.8557 95.3305 42.5634L89.0541 53.4336C88.6442 54.1413 87.7392 54.381 87.0315 53.9711C86.9348 53.9131 86.8459 53.8474 86.7647 53.7739L77.0387 44.6898C76.4393 44.133 76.4045 43.1932 76.9614 42.5939C77.5183 41.9945 78.458 41.9596 79.0574 42.5165L86.3818 49.3576C86.2736 40.7916 83.2417 32.9252 78.2375 26.727C73.0439 20.2881 65.7231 15.6324 57.3469 13.8265C56.5464 13.6563 56.0359 12.8674 56.2061 12.0708C56.3762 11.2703 57.1651 10.7598 57.9617 10.93C67.0186 12.879 74.9353 17.9102 80.5453 24.8708C85.5262 31.0428 88.6973 38.735 89.2622 47.1376L92.7659 41.0661L92.7704 41.0784ZM6.22791 61.4666C5.81798 62.1743 4.91302 62.414 4.20534 62.0041C3.49765 61.5942 3.25791 60.6893 3.6678 59.9816L9.94424 49.1114C10.3542 48.4037 11.2591 48.1639 11.9668 48.5738C12.0635 48.6318 12.1524 48.6976 12.2336 48.7711L21.9596 57.8551C22.559 58.412 22.5938 59.3518 22.0369 59.9511C21.48 60.5505 20.5403 60.5853 19.9409 60.0285L12.8755 53.431C12.9335 54.0536 13.0109 54.6724 13.1037 55.2912C13.3319 56.8303 13.649 58.323 14.0473 59.7655C14.2639 60.5505 13.8037 61.3703 13.0148 61.5869C12.2297 61.8035 11.4099 61.3433 11.1933 60.5543C10.7525 58.9688 10.4083 57.3523 10.1685 55.7242L10.0525 54.8541L6.22788 61.4747L6.22791 61.4666ZM85.3471 58.5894C85.5404 57.7966 86.3409 57.3093 87.1337 57.4988C87.9265 57.6922 88.4137 58.4927 88.2243 59.2855C87.853 60.813 87.3889 62.3135 86.8475 63.7675C86.2945 65.2486 85.6564 66.6834 84.9487 68.064C84.5736 68.791 83.6802 69.0771 82.9532 68.702C82.2261 68.327 81.94 67.4336 82.3151 66.7065C82.9764 65.4188 83.5681 64.0923 84.0746 62.7349C84.5774 61.3892 85.0028 60.0008 85.3469 58.5893L85.3471 58.5894ZM40.0851 85.4663C40.874 85.6751 41.3496 86.4833 41.1408 87.2761C40.932 88.065 40.1238 88.5407 39.331 88.3319C34.6555 87.0944 30.3129 85.0255 26.4808 82.2952C22.5826 79.5186 19.2066 76.0613 16.5346 72.1015C16.0782 71.4209 16.2561 70.5005 16.9367 70.0441C17.6174 69.5877 18.5377 69.7657 18.9941 70.4463C21.473 74.1201 24.5977 77.3222 28.1978 79.886C31.744 82.4112 35.7621 84.3293 40.0861 85.4702L40.0851 85.4663ZM16.1007 65.3214C16.4449 66.06 16.1278 66.9418 15.3891 67.2898C14.6505 67.634 13.7687 67.3168 13.4208 66.5782L13.3705 66.4699C13.0263 65.7313 13.3434 64.8496 14.082 64.5016C14.8207 64.1574 15.7024 64.4745 16.0504 65.2131L16.1007 65.3214Z" fill="#7696BB"/>
</svg>

<svg xmlns="http://www.w3.org/2000/svg" width="99" height="99" fill="none" viewBox="0 0 99 99"><path fill="#7696BB" d="M13.195 43.85a1.484 1.484 0 0 1-1.698 1.226 1.484 1.484 0 0 1-1.226-1.697 39.6 39.6 0 0 1 5.519-14.614 40 40 0 0 1 10.762-11.401 1.484 1.484 0 0 1 2.065.348 1.484 1.484 0 0 1-.348 2.065 37.1 37.1 0 0 0-9.973 10.553 36.6 36.6 0 0 0-5.105 13.524zM38.803 6.311a1.48 1.48 0 1 1 1.617-2.483l9.934 6.463a1.48 1.48 0 0 1 .433 2.05l-.116.158-8.148 9.54a1.482 1.482 0 0 1-2.25-1.926l5.936-6.95a36.5 36.5 0 0 0-5.577.94 36.5 36.5 0 0 0-7.309 2.669c-.735.36-1.62.054-1.98-.677a1.48 1.48 0 0 1 .677-1.98 39.6 39.6 0 0 1 12.936-3.801zm19.595 86.336a1.48 1.48 0 1 1-1.485 2.56l-10.05-5.804a1.48 1.48 0 0 1-.537-2.023l.166-.232 8.23-10.159a1.48 1.48 0 0 1 2.084-.212c.634.514.73 1.45.213 2.084l-6.331 7.812a36.6 36.6 0 0 0 15.484-3.933 37 37 0 0 0 13.08-11.083 1.483 1.483 0 0 1 2.068-.321c.661.483.8 1.411.321 2.069a40 40 0 0 1-14.13 11.977 39.6 39.6 0 0 1-14.534 4.13l5.426 3.133zM92.77 41.078a1.48 1.48 0 1 1 2.56 1.485l-6.276 10.87a1.48 1.48 0 0 1-2.29.34L77.04 44.69a1.484 1.484 0 0 1 2.018-2.173l7.325 6.84a36.66 36.66 0 0 0-8.145-22.63c-5.193-6.439-12.514-11.095-20.89-12.9a1.482 1.482 0 0 1 .615-2.897c9.057 1.949 16.973 6.98 22.583 13.94a39.6 39.6 0 0 1 8.717 22.268l3.504-6.072zM6.228 61.467a1.48 1.48 0 1 1-2.56-1.485l6.276-10.87a1.48 1.48 0 0 1 2.29-.34l9.726 9.083a1.484 1.484 0 0 1-2.02 2.174l-7.065-6.598q.089.933.229 1.86a37 37 0 0 0 .943 4.475 1.482 1.482 0 0 1-2.854.788 40 40 0 0 1-1.024-4.83l-.117-.87-3.824 6.62zm79.12-2.878a1.485 1.485 0 0 1 1.786-1.09c.793.193 1.28.994 1.09 1.786a39.8 39.8 0 0 1-3.275 8.779 1.482 1.482 0 0 1-2.634-1.357 37 37 0 0 0 1.76-3.972 37 37 0 0 0 1.272-4.146M40.084 85.466a1.483 1.483 0 0 1-.754 2.866 39.6 39.6 0 0 1-12.85-6.037 40 40 0 0 1-9.946-10.193 1.481 1.481 0 1 1 2.46-1.655 37 37 0 0 0 9.203 9.439 36.6 36.6 0 0 0 11.888 5.584zM16.101 65.321c.344.739.027 1.62-.712 1.969a1.484 1.484 0 0 1-1.968-.712l-.05-.108a1.484 1.484 0 0 1 .711-1.968 1.484 1.484 0 0 1 1.968.711z"/></svg>
